X: 4284
M: C|
L: 1/8
K: D
(FG) |\
[1,3 cdcB ABAG | FGAB A2 :|\
[2,4 cdcB Agfe | d2f2"_D.C."d2 :|
|: (ed) |\
cdcB A2(ag) | fgfe d2(d'c') |\
[1,3 bagf gfed | cdBc A2 :|\
[2,4 bagf efga | f2d2d2 :|


